X:1
T:NJAJE Junior Trombone Etude No.2
T:NJAJE Junior Trombone Etude No.2A
T:Scott Whitfield Ported to MuseScore by Caburum 
C:Scott Whitfield
L:1/8
Q:1/4=120
M:4/4
K:Eb
V:1 bass nm="Trombone" snm="Tbn."
V:1
|:"^Medium Swing""^A" z !>!E3 .D2 C!>!B,- | B,4 z !>!G,2 A, | (B,CB,!>!_D- D4- | DB,A,G,) z !>!C3 | %4
 !tenuto!G,.C, z2 z (E,G,!>!=E,- | E,2 .F,2) .G,2 (A,!>!B,- |1 B,4- B,CG,B,- | !>!B,8 :|2 %8
 B,4- B,CB,_D- | D6 .C2) ||"^B" (!>!ECC!>!C- C4) | z2 (E!>!D- D2 .C2) | (!>!DB,B,!>!B,- B,4) | %13
 z2 z =B, .C !>!D2 (!>!E- | E2 DE D .C2) (G, | !tenuto!B,2 E!>!=A,- A,4) | z (G, (3A,B,C ECA,F, | %17
 !tenuto!G,2 B,!>!_G,- G,4) |"^C" z !>!E3 .D2 C!>!B,- | B,4 z !>!G,2 A, | (B,CB,!>!_D- D=B,CE- | %21
 ED_D!>!C- C4) | z (C,D,!>!E,- E,F, (3G,A,B, | C !>!_G,3 E,F,E,!>!E,) | %24
 z (!>!B,,C,G,) .D,2 B,,!>!C,- | !fermata!C,8 |] %26

